Numix-GalliumOS/64/mimetypes/application-java.svg

<svg xmlns="http://www.w3.org/2000/svg" xmlns:xlink="http://www.w3.org/1999/xlink" width="64px" height="64px" viewBox="0 0 64 64" version="1.1">
<g id="surface1">
<path style=" stroke:none;fill-rule:nonzero;fill:rgb(90.196078%,43.529412%,0%);fill-opacity:1;" d="M 10.671875 0 C 9.296875 0 8 1.355469 8 2.789062 L 8 61.210938 C 8 62.566406 9.375 64 10.671875 64 L 53.328125 64 C 54.625 64 56 62.566406 56 61.210938 L 56 18 L 38 0 Z M 10.671875 0 "/>
<path style=" stroke:none;fill-rule:nonzero;fill:rgb(0%,0%,0%);fill-opacity:0.196078;" d="M 42 18 L 56 32 L 56 18 Z M 42 18 "/>
<path style=" stroke:none;fill-rule:nonzero;fill:rgb(100%,100%,100%);fill-opacity:0.392157;" d="M 38 0 L 55.984375 18 L 40.757812 18 C 39.410156 18 38 16.574219 38 15.226562 Z M 38 0 "/>
<path style=" stroke:none;fill-rule:evenodd;fill:rgb(100%,100%,100%);fill-opacity:1;" d="M 27.675781 43.871094 C 27.675781 43.871094 26.414062 44.570312 28.570312 44.804688 C 31.1875 45.089844 32.519531 45.050781 35.398438 44.53125 C 35.398438 44.53125 36.148438 44.976562 37.207031 45.363281 C 30.757812 47.988281 22.613281 45.210938 27.675781 43.871094 "/>
<path style=" stroke:none;fill-rule:evenodd;fill:rgb(100%,100%,100%);fill-opacity:1;" d="M 26.882812 40.453125 C 26.882812 40.453125 25.46875 41.449219 27.625 41.652344 C 30.421875 41.925781 32.621094 41.949219 36.433594 41.253906 C 36.433594 41.253906 36.964844 41.765625 37.789062 42.039062 C 29.996094 44.207031 21.300781 42.210938 26.882812 40.453125 "/>
<path style=" stroke:none;fill-rule:evenodd;fill:rgb(100%,100%,100%);fill-opacity:1;" d="M 33.535156 34.65625 C 35.121094 36.382812 33.109375 37.949219 33.109375 37.949219 C 33.109375 37.949219 37.148438 35.964844 35.296875 33.496094 C 33.566406 31.1875 32.234375 30.046875 39.425781 26.089844 C 39.425781 26.089844 28.144531 28.765625 33.535156 34.65625 "/>
<path style=" stroke:none;fill-rule:evenodd;fill:rgb(100%,100%,100%);fill-opacity:1;" d="M 42.058594 46.402344 C 42.058594 46.402344 42.996094 47.136719 41.03125 47.695312 C 37.308594 48.761719 25.539062 49.085938 22.265625 47.734375 C 21.097656 47.257812 23.292969 46.574219 23.996094 46.441406 C 24.71875 46.289062 25.125 46.320312 25.125 46.320312 C 23.820312 45.445312 16.671875 48.03125 21.503906 48.773438 C 34.65625 50.796875 45.476562 47.867188 42.058594 46.402344 "/>
<path style=" stroke:none;fill-rule:evenodd;fill:rgb(100%,100%,100%);fill-opacity:1;" d="M 28.277344 36.914062 C 28.277344 36.914062 22.285156 38.253906 26.160156 38.742188 C 27.789062 38.957031 31.042969 38.90625 34.085938 38.660156 C 36.554688 38.46875 39.046875 38.050781 39.046875 38.050781 C 39.046875 38.050781 38.171875 38.398438 37.542969 38.816406 C 31.460938 40.332031 19.710938 39.617188 23.089844 38.070312 C 25.957031 36.761719 28.277344 36.914062 28.277344 36.914062 "/>
<path style=" stroke:none;fill-rule:evenodd;fill:rgb(100%,100%,100%);fill-opacity:1;" d="M 39.019531 42.597656 C 45.203125 39.558594 42.34375 36.628906 40.351562 37.023438 C 39.863281 37.117188 39.648438 37.207031 39.648438 37.207031 C 39.648438 37.207031 39.820312 36.933594 40.175781 36.820312 C 44.125 35.5 47.15625 40.695312 38.894531 42.761719 C 38.894531 42.761719 38.996094 42.679688 39.019531 42.597656 "/>
<path style=" stroke:none;fill-rule:evenodd;fill:rgb(100%,100%,100%);fill-opacity:1;" d="M 35.296875 19.710938 C 35.296875 19.710938 38.722656 22.957031 32.050781 27.953125 C 26.699219 31.957031 30.828125 34.238281 32.050781 36.851562 C 28.929688 34.175781 26.628906 31.828125 28.164062 29.640625 C 30.421875 26.425781 36.679688 24.871094 35.296875 19.710938 "/>
<path style=" stroke:none;fill-rule:evenodd;fill:rgb(100%,100%,100%);fill-opacity:1;" d="M 28.886719 50.859375 C 34.816406 51.214844 43.929688 50.652344 44.15625 48 C 44.15625 48 43.738281 49.007812 39.242188 49.808594 C 34.175781 50.703125 27.929688 50.601562 24.230469 50.023438 C 24.230469 50.023438 24.992188 50.625 28.886719 50.859375 "/>
</g>
</svg>

<svg xmlns="http://www.w3.org/2000/svg" viewBox="0 0 64 64">
 <g>
  <path d="m 10.672 0 c -1.375 0 -2.672 1.355 -2.672 2.789 l 0 58.42 c 0 1.355 1.375 2.789 2.672 2.789 l 42.656 0 c 1.297 0 2.672 -1.434 2.672 -2.789 l 0 -43.21 l -18 -18 m -27.328 0" style="fill:#e56f00;fill-opacity:1;stroke:none;fill-rule:nonzero"/>
  <path d="m 42 18 l 14 14 l 0 -14 m -14 0" style="fill:#000;fill-opacity:0.196;stroke:none;fill-rule:nonzero"/>
  <path d="m 38 0 l 17.984 18 l -15.227 0 c -1.348 0 -2.758 -1.426 -2.758 -2.773 m 0 -15.227" style="fill:#fff;fill-opacity:0.392;stroke:none;fill-rule:nonzero"/>
  <path d="m 27.676 43.871 c 0 0 -1.262 0.699 0.895 0.934 c 2.617 0.285 3.949 0.246 6.828 -0.273 c 0 0 0.75 0.445 1.809 0.832 c -6.449 2.625 -14.594 -0.152 -9.531 -1.492" style="fill:#fff;fill-opacity:1;stroke:none;fill-rule:evenodd"/>
  <path d="m 26.883 40.453 c 0 0 -1.414 0.996 0.742 1.199 c 2.797 0.273 4.996 0.297 8.809 -0.398 c 0 0 0.531 0.512 1.355 0.785 c -7.793 2.168 -16.488 0.172 -10.906 -1.586" style="fill:#fff;fill-opacity:1;stroke:none;fill-rule:evenodd"/>
  <path d="m 33.535 34.656 c 1.586 1.727 -0.426 3.293 -0.426 3.293 c 0 0 4.04 -1.984 2.188 -4.453 c -1.73 -2.309 -3.063 -3.449 4.129 -7.406 c 0 0 -11.281 2.676 -5.891 8.566" style="fill:#fff;fill-opacity:1;stroke:none;fill-rule:evenodd"/>
  <path d="m 42.06 46.4 c 0 0 0.938 0.734 -1.027 1.293 c -3.723 1.066 -15.492 1.391 -18.766 0.039 c -1.168 -0.477 1.027 -1.16 1.73 -1.293 c 0.723 -0.152 1.129 -0.121 1.129 -0.121 c -1.305 -0.875 -8.453 1.711 -3.621 2.453 c 13.152 2.023 23.973 -0.906 20.555 -2.371" style="fill:#fff;fill-opacity:1;stroke:none;fill-rule:evenodd"/>
  <path d="m 28.28 36.914 c 0 0 -5.992 1.34 -2.117 1.828 c 1.629 0.215 4.883 0.164 7.926 -0.082 c 2.469 -0.191 4.961 -0.609 4.961 -0.609 c 0 0 -0.875 0.348 -1.504 0.766 c -6.082 1.516 -17.832 0.801 -14.453 -0.746 c 2.867 -1.309 5.188 -1.156 5.188 -1.156" style="fill:#fff;fill-opacity:1;stroke:none;fill-rule:evenodd"/>
  <path d="m 39.02 42.598 c 6.184 -3.039 3.324 -5.969 1.332 -5.574 c -0.488 0.094 -0.703 0.184 -0.703 0.184 c 0 0 0.172 -0.273 0.527 -0.387 c 3.949 -1.32 6.98 3.875 -1.281 5.941 c 0 0 0.102 -0.082 0.125 -0.164" style="fill:#fff;fill-opacity:1;stroke:none;fill-rule:evenodd"/>
  <path d="m 35.3 19.711 c 0 0 3.426 3.246 -3.246 8.242 c -5.352 4 -1.223 6.285 0 8.898 c -3.121 -2.676 -5.422 -5.02 -3.887 -7.211 c 2.258 -3.215 8.516 -4.77 7.133 -9.93" style="fill:#fff;fill-opacity:1;stroke:none;fill-rule:evenodd"/>
  <path d="m 28.887 50.859 c 5.93 0.355 15.04 -0.207 15.27 -2.859 c 0 0 -0.418 1.01 -4.914 1.809 c -5.066 0.895 -11.313 0.793 -15.01 0.215 c 0 0 0.762 0.602 4.656 0.836" style="fill:#fff;fill-opacity:1;stroke:none;fill-rule:evenodd"/>
 </g>
</svg>
